icon.svg

<?xml version="1.0" encoding="UTF-8" standalone="no"?><svg width="256px" height="290px" viewBox="0 0 256 290" version="1.1" xmlns="http://www.w3.org/2000/svg" xmlns:xlink="http://www.w3.org/1999/xlink" preserveAspectRatio="xMinYMin meet"><g><path d="M243.289302,131.52645 C243.289302,198.71355 188.831752,253.171101 121.644651,253.171101 C54.4575504,253.171101 0,198.71355 0,131.52645 C0,64.3393488 54.4575504,9.88179845 121.644651,9.88179845 C188.831752,9.82325581 243.289302,64.3393488 243.289302,131.52645" fill="#008CC1"></path><path d="M53.9266977,91.6261705 C53.9266977,96.9902636 49.5657674,101.351194 44.2026667,101.351194 C38.8385736,101.351194 34.4776434,96.9902636 34.4776434,91.6261705 C34.4776434,86.2630698 38.8385736,81.9021395 44.2026667,81.9021395 C49.6243101,81.9021395 53.9266977,86.2630698 53.9266977,91.6261705" fill="#FFFFFF"></path><path d="M55.5768062,118.324589 C55.5768062,123.68769 51.215876,128.049612 45.8527752,128.049612 C40.4896744,128.049612 36.1277519,123.68769 36.1277519,118.324589 C36.1277519,112.961488 40.4896744,108.600558 45.8527752,108.600558 C51.215876,108.600558 55.5768062,112.902946 55.5768062,118.324589" fill="#FFFFFF"></path><path d="M61.5293023,146.614574 C61.5293023,151.977674 57.1683721,156.338605 51.8052713,156.338605 C46.4421705,156.338605 42.0802481,151.977674 42.0802481,146.614574 C42.0802481,141.250481 46.4421705,136.88955 51.8052713,136.88955 C57.1683721,136.831008 61.5293023,141.191938 61.5293023,146.614574" fill="#FFFFFF"></path><path d="M74.8492403,171.956589 C74.8492403,177.31969 70.4873178,181.681612 65.1242171,181.681612 C59.7611163,181.681612 55.400186,177.31969 55.400186,171.956589 C55.400186,166.593488 59.7611163,162.232558 65.1242171,162.232558 C70.4873178,162.173023 74.8492403,166.534946 74.8492403,171.956589" fill="#FFFFFF"></path><path d="M178.989643,207.37786 C178.989643,212.740961 174.628713,217.101891 169.26462,217.101891 C163.901519,217.101891 159.540589,212.740961 159.540589,207.37786 C159.540589,202.01476 163.901519,197.652837 169.26462,197.652837 C174.628713,197.652837 178.989643,202.01476 178.989643,207.37786" fill="#FFFFFF"></path><path d="M196.670512,186.455318 C196.670512,191.818419 192.309581,196.179349 186.945488,196.179349 C181.582388,196.179349 177.221457,191.818419 177.221457,186.455318 C177.221457,181.092217 181.582388,176.730295 186.945488,176.730295 C192.309581,176.730295 196.670512,181.092217 196.670512,186.455318" fill="#FFFFFF"></path><path d="M145.396093,38.5250233 C145.396093,43.888124 141.034171,48.2490543 135.67107,48.2490543 C130.307969,48.2490543 125.947039,43.888124 125.947039,38.5250233 C125.947039,33.1619225 130.307969,28.8009922 135.67107,28.8009922 C141.034171,28.8009922 145.396093,33.1619225 145.396093,38.5250233" fill="#FFFFFF"></path><path d="M119.817922,29.5670078 C119.817922,34.9301085 115.456,39.2910388 110.092899,39.2910388 C104.729798,39.2910388 100.368868,34.9301085 100.368868,29.5670078 C100.368868,24.203907 104.729798,19.8419845 110.092899,19.8419845 C115.456,19.8419845 119.817922,24.203907 119.817922,29.5670078" fill="#FFFFFF"></path><path d="M188.773209,37.6994729 C224.577488,37.6994729 253.602729,66.7257054 253.602729,102.529984 C253.602729,138.334264 224.577488,167.359504 188.773209,167.359504 C152.967938,167.359504 123.942698,138.334264 123.942698,102.529984 C123.942698,66.7257054 152.967938,37.6994729 188.773209,37.6994729" fill="#66B245"></path><path d="M188.773209,169.095938 C152.067969,169.095938 122.206264,139.234233 122.206264,102.529984 C122.206264,65.8247442 152.067969,35.964031 188.773209,35.964031 C225.477457,35.964031 255.339163,65.8247442 255.339163,102.529984 C255.339163,139.234233 225.477457,169.095938 188.773209,169.095938 L188.773209,169.095938 Z M188.773209,39.4368992 C153.983008,39.4368992 125.679132,67.7407752 125.679132,102.529984 C125.679132,137.320186 153.983008,165.62307 188.773209,165.62307 C223.563411,165.62307 251.866295,137.320186 251.866295,102.529984 C251.866295,67.7407752 223.563411,39.4368992 188.773209,39.4368992 L188.773209,39.4368992 Z" fill="#FFFFFF"></path><path d="M99.956093,181.681612 C129.250233,181.681612 152.998698,205.429085 152.998698,234.724217 C152.998698,264.018357 129.250233,287.766822 99.956093,287.766822 C70.6609612,287.766822 46.9134884,264.018357 46.9134884,234.724217 C46.9134884,205.429085 70.6609612,181.681612 99.956093,181.681612" fill="#66B245"></path><path d="M99.956093,289.503256 C69.7500775,289.503256 45.1770543,264.92924 45.1770543,234.724217 C45.1770543,204.518202 69.7500775,179.945178 99.956093,179.945178 C130.162109,179.945178 154.735132,204.518202 154.735132,234.724217 C154.735132,264.92924 130.162109,289.503256 99.956093,289.503256 L99.956093,289.503256 Z M99.956093,183.418047 C71.6661085,183.418047 48.6499225,206.43324 48.6499225,234.724217 C48.6499225,263.014202 71.6661085,286.030388 99.956093,286.030388 C128.246078,286.030388 151.262264,263.014202 151.262264,234.724217 C151.262264,206.43324 128.246078,183.418047 99.956093,183.418047 L99.956093,183.418047 Z" fill="#FFFFFF"></path><path d="M56.2842791,1.98449612 C75.8137054,1.98449612 91.6460155,17.8168062 91.6460155,37.3462326 C91.6460155,56.8756589 75.8137054,72.707969 56.2842791,72.707969 C36.7548527,72.707969 20.9225426,56.8756589 20.9225426,37.3462326 C20.9225426,17.8168062 36.7548527,1.98449612 56.2842791,1.98449612" fill="#66B245"></path><path d="M56.2842791,74.4444031 C35.828093,74.4444031 19.1861085,57.8024186 19.1861085,37.3462326 C19.1861085,16.8900465 35.828093,0.248062016 56.2842791,0.248062016 C76.7404651,0.248062016 93.3824496,16.8900465 93.3824496,37.3462326 C93.3824496,57.8024186 76.7404651,74.4444031 56.2842791,74.4444031 L56.2842791,74.4444031 Z M56.2842791,3.72093023 C37.7431318,3.72093023 22.6589767,18.8050853 22.6589767,37.3462326 C22.6589767,55.8873798 37.7431318,70.9715349 56.2842791,70.9715349 C74.8254264,70.9715349 89.9095814,55.8873798 89.9095814,37.3462326 C89.9095814,18.8050853 74.8254264,3.72093023 56.2842791,3.72093023 L56.2842791,3.72093023 Z" fill="#FFFFFF"></path></g></svg>

<?xml version="1.0" encoding="UTF-8" standalone="no"?>
<!-- Created with Inkscape (http://www.inkscape.org/) -->

<svg
   xmlns:dc="http://purl.org/dc/elements/1.1/"
   xmlns:cc="http://creativecommons.org/ns#"
   xmlns:rdf="http://www.w3.org/1999/02/22-rdf-syntax-ns#"
   xmlns:svg="http://www.w3.org/2000/svg"
   xmlns="http://www.w3.org/2000/svg"
   xmlns:sodipodi="http://sodipodi.sourceforge.net/DTD/sodipodi-0.dtd"
   xmlns:inkscape="http://www.inkscape.org/namespaces/inkscape"
   width="96"
   height="96"
   id="svg6517"
   version="1.1"
   inkscape:version="0.91 r13725"
   sodipodi:docname="icon.svg">
  <defs
     id="defs6519">
    <linearGradient
       id="Background">
      <stop
         id="stop4178"
         offset="0"
         style="stop-color:#b8b8b8;stop-opacity:1" />
      <stop
         id="stop4180"
         offset="1"
         style="stop-color:#c9c9c9;stop-opacity:1" />
    </linearGradient>
    <filter
       style="color-interpolation-filters:sRGB;"
       inkscape:label="Inner Shadow"
       id="filter1121">
      <feFlood
         flood-opacity="0.59999999999999998"
         flood-color="rgb(0,0,0)"
         result="flood"
         id="feFlood1123" />
      <feComposite
         in="flood"
         in2="SourceGraphic"
         operator="out"
         result="composite1"
         id="feComposite1125" />
      <feGaussianBlur
         in="composite1"
         stdDeviation="1"
         result="blur"
         id="feGaussianBlur1127" />
      <feOffset
         dx="0"
         dy="2"
         result="offset"
         id="feOffset1129" />
      <feComposite
         in="offset"
         in2="SourceGraphic"
         operator="atop"
         result="composite2"
         id="feComposite1131" />
    </filter>
    <filter
       style="color-interpolation-filters:sRGB;"
       inkscape:label="Drop Shadow"
       id="filter950">
      <feFlood
         flood-opacity="0.25"
         flood-color="rgb(0,0,0)"
         result="flood"
         id="feFlood952" />
      <feComposite
         in="flood"
         in2="SourceGraphic"
         operator="in"
         result="composite1"
         id="feComposite954" />
      <feGaussianBlur
         in="composite1"
         stdDeviation="1"
         result="blur"
         id="feGaussianBlur956" />
      <feOffset
         dx="0"
         dy="1"
         result="offset"
         id="feOffset958" />
      <feComposite
         in="SourceGraphic"
         in2="offset"
         operator="over"
         result="composite2"
         id="feComposite960" />
    </filter>
    <clipPath
       clipPathUnits="userSpaceOnUse"
       id="clipPath873">
      <g
         transform="matrix(0,-0.66666667,0.66604479,0,-258.25992,677.00001)"
         id="g875"
         inkscape:label="Layer 1"
         style="fill:#ff00ff;fill-opacity:1;stroke:none;display:inline">
        <path
           style="fill:#ff00ff;fill-opacity:1;stroke:none;display:inline"
           d="m 46.702703,898.22775 50.594594,0 C 138.16216,898.22775 144,904.06497 144,944.92583 l 0,50.73846 c 0,40.86071 -5.83784,46.69791 -46.702703,46.69791 l -50.594594,0 C 5.8378378,1042.3622 0,1036.525 0,995.66429 L 0,944.92583 C 0,904.06497 5.8378378,898.22775 46.702703,898.22775 Z"
           id="path877"
           inkscape:connector-curvature="0"
           sodipodi:nodetypes="sssssssss" />
      </g>
    </clipPath>
    <filter
       inkscape:collect="always"
       id="filter891"
       inkscape:label="Badge Shadow">
      <feGaussianBlur
         inkscape:collect="always"
         stdDeviation="0.71999962"
         id="feGaussianBlur893" />
    </filter>
    <filter
       inkscape:collect="always"
       style="color-interpolation-filters:sRGB"
       id="filter4306"
       x="-0.06"
       width="1.12"
       y="-0.06"
       height="1.12">
      <feGaussianBlur
         inkscape:collect="always"
         stdDeviation="2.4"
         id="feGaussianBlur4308" />
    </filter>
  </defs>
  <sodipodi:namedview
     id="base"
     pagecolor="#ffffff"
     bordercolor="#666666"
     borderopacity="1.0"
     inkscape:pageopacity="0.0"
     inkscape:pageshadow="2"
     inkscape:zoom="16.298145"
     inkscape:cx="58.699025"
     inkscape:cy="35.76504"
     inkscape:document-units="px"
     inkscape:current-layer="layer3"
     showgrid="true"
     fit-margin-top="0"
     fit-margin-left="0"
     fit-margin-right="0"
     fit-margin-bottom="0"
     inkscape:window-width="1920"
     inkscape:window-height="1056"
     inkscape:window-x="1280"
     inkscape:window-y="24"
     inkscape:window-maximized="1"
     showborder="true"
     showguides="true"
     inkscape:guide-bbox="true"
     inkscape:showpageshadow="false">
    <inkscape:grid
       type="xygrid"
       id="grid821" />
    <sodipodi:guide
       orientation="1,0"
       position="16,48"
       id="guide823" />
    <sodipodi:guide
       orientation="0,1"
       position="64,80"
       id="guide825" />
    <sodipodi:guide
       orientation="1,0"
       position="80,40"
       id="guide827" />
    <sodipodi:guide
       orientation="0,1"
       position="64,16"
       id="guide829" />
  </sodipodi:namedview>
  <metadata
     id="metadata6522">
    <rdf:RDF>
      <cc:Work
         rdf:about="">
        <dc:format>image/svg+xml</dc:format>
        <dc:type
           rdf:resource="http://purl.org/dc/dcmitype/StillImage" />
        <dc:title></dc:title>
      </cc:Work>
    </rdf:RDF>
  </metadata>
  <g
     inkscape:label="BACKGROUND"
     inkscape:groupmode="layer"
     id="layer1"
     transform="translate(268,-635.29076)"
     style="display:inline"
     sodipodi:insensitive="true">
    <path
       style="display:inline;fill:#ffffff;fill-opacity:1;stroke:none;stroke-opacity:1;filter:url(#filter4306)"
       d="m -268,700.15563 0,-33.72973 c 0,-27.24324 3.88785,-31.13513 31.10302,-31.13513 l 33.79408,0 c 27.21507,0 31.1029,3.89189 31.1029,31.13513 l 0,33.72973 c 0,27.24325 -3.88783,31.13514 -31.1029,31.13514 l -33.79408,0 c -27.21517,0 -31.10302,-3.89189 -31.10302,-31.13514 z"
       id="path6455"
       inkscape:connector-curvature="0"
       sodipodi:nodetypes="sssssssss" />
  </g>
  <g
     inkscape:groupmode="layer"
     id="layer3"
     inkscape:label="PLACE YOUR PICTOGRAM HERE"
     style="display:inline">
    <g
       id="g4192"
       transform="matrix(0.22129981,0,0,0.22129981,19.689282,15.936815)">
      <path
         id="path4194"
         d="m 243.2893,131.52645 c 0,67.1871 -54.45755,121.64465 -121.64465,121.64465 C 54.45755,253.1711 0,198.71355 0,131.52645 0,64.339349 54.45755,9.8817985 121.64465,9.8817985 188.83175,9.8232558 243.2893,64.339349 243.2893,131.52645"
         inkscape:connector-curvature="0"
         style="fill:#008cc1" />
      <path
         id="path4196"
         d="m 53.926698,91.62617 c 0,5.364094 -4.360931,9.72502 -9.724031,9.72502 -5.364093,0 -9.725024,-4.360926 -9.725024,-9.72502 0,-5.3631 4.360931,-9.72403 9.725024,-9.72403 5.421643,0 9.724031,4.36093 9.724031,9.72403"
         inkscape:connector-curvature="0"
         style="fill:#ffffff" />
      <path
         id="path4198"
         d="m 55.576806,118.32459 c 0,5.3631 -4.36093,9.72502 -9.724031,9.72502 -5.363101,0 -9.725023,-4.36192 -9.725023,-9.72502 0,-5.3631 4.361922,-9.72403 9.725023,-9.72403 5.363101,0 9.724031,4.30239 9.724031,9.72403"
         inkscape:connector-curvature="0"
         style="fill:#ffffff" />
      <path
         id="path4200"
         d="m 61.529302,146.61457 c 0,5.3631 -4.36093,9.72403 -9.724031,9.72403 -5.3631,0 -9.725023,-4.36093 -9.725023,-9.72403 0,-5.36409 4.361923,-9.72502 9.725023,-9.72502 5.363101,-0.0585 9.724031,4.30239 9.724031,9.72502"
         inkscape:connector-curvature="0"
         style="fill:#ffffff" />
      <path
         id="path4202"
         d="m 74.84924,171.95659 c 0,5.3631 -4.361922,9.72502 -9.725023,9.72502 -5.363101,0 -9.724031,-4.36192 -9.724031,-9.72502 0,-5.3631 4.36093,-9.72403 9.724031,-9.72403 5.363101,-0.0595 9.725023,4.30239 9.725023,9.72403"
         inkscape:connector-curvature="0"
         style="fill:#ffffff" />
      <path
         id="path4204"
         d="m 178.98964,207.37786 c 0,5.3631 -4.36093,9.72403 -9.72502,9.72403 -5.3631,0 -9.72403,-4.36093 -9.72403,-9.72403 0,-5.3631 4.36093,-9.72502 9.72403,-9.72502 5.36409,0 9.72502,4.36192 9.72502,9.72502"
         inkscape:connector-curvature="0"
         style="fill:#ffffff" />
      <path
         id="path4206"
         d="m 196.67051,186.45532 c 0,5.3631 -4.36093,9.72403 -9.72502,9.72403 -5.3631,0 -9.72403,-4.36093 -9.72403,-9.72403 0,-5.3631 4.36093,-9.72503 9.72403,-9.72503 5.36409,0 9.72502,4.36193 9.72502,9.72503"
         inkscape:connector-curvature="0"
         style="fill:#ffffff" />
      <path
         id="path4208"
         d="m 145.39609,38.525023 c 0,5.363101 -4.36192,9.724031 -9.72502,9.724031 -5.3631,0 -9.72403,-4.36093 -9.72403,-9.724031 0,-5.3631 4.36093,-9.724031 9.72403,-9.724031 5.3631,0 9.72502,4.360931 9.72502,9.724031"
         inkscape:connector-curvature="0"
         style="fill:#ffffff" />
      <path
         id="path4210"
         d="m 119.81792,29.567008 c 0,5.363101 -4.36192,9.724031 -9.72502,9.724031 -5.3631,0 -9.72403,-4.36093 -9.72403,-9.724031 0,-5.363101 4.36093,-9.725024 9.72403,-9.725024 5.3631,0 9.72502,4.361923 9.72502,9.725024"
         inkscape:connector-curvature="0"
         style="fill:#ffffff" />
      <path
         id="path4212"
         d="m 188.77321,37.699473 c 35.80428,0 64.82952,29.026232 64.82952,64.830507 0,35.80428 -29.02524,64.82952 -64.82952,64.82952 -35.80527,0 -64.83051,-29.02524 -64.83051,-64.82952 0,-35.804275 29.02524,-64.830507 64.83051,-64.830507"
         inkscape:connector-curvature="0"
         style="fill:#66b245" />
      <path
         id="path4214"
         d="m 188.77321,169.09594 c -36.70524,0 -66.56695,-29.86171 -66.56695,-66.56596 0,-36.705236 29.86171,-66.565949 66.56695,-66.565949 36.70425,0 66.56595,29.860713 66.56595,66.565949 0,36.70425 -29.8617,66.56596 -66.56595,66.56596 l 0,0 z m 0,-129.659041 c -34.7902,0 -63.09408,28.303876 -63.09408,63.093081 0,34.79021 28.30388,63.09309 63.09408,63.09309 34.7902,0 63.09308,-28.30288 63.09308,-63.09309 0,-34.789205 -28.30288,-63.093081 -63.09308,-63.093081 l 0,0 z"
         inkscape:connector-curvature="0"
         style="fill:#ffffff" />
      <path
         id="path4216"
         d="m 99.956093,181.68161 c 29.294137,0 53.042607,23.74747 53.042607,53.04261 0,29.29414 -23.74847,53.0426 -53.042607,53.0426 -29.295132,0 -53.042605,-23.74846 -53.042605,-53.0426 0,-29.29514 23.747473,-53.04261 53.042605,-53.04261"
         inkscape:connector-curvature="0"
         style="fill:#66b245" />
      <path
         id="path4218"
         d="m 99.956093,289.50326 c -30.206015,0 -54.779039,-24.57402 -54.779039,-54.77904 0,-30.20602 24.573024,-54.77904 54.779039,-54.77904 30.206017,0 54.779037,24.57302 54.779037,54.77904 0,30.20502 -24.57302,54.77904 -54.779037,54.77904 l 0,0 z m 0,-106.08521 c -28.289984,0 -51.30617,23.01519 -51.30617,51.30617 0,28.28998 23.016186,51.30617 51.30617,51.30617 28.289987,0 51.306167,-23.01619 51.306167,-51.30617 0,-28.29098 -23.01618,-51.30617 -51.306167,-51.30617 l 0,0 z"
         inkscape:connector-curvature="0"
         style="fill:#ffffff" />
      <path
         id="path4220"
         d="m 56.284279,1.9844961 c 19.529426,0 35.361737,15.8323099 35.361737,35.3617369 0,19.529426 -15.832311,35.361736 -35.361737,35.361736 -19.529426,0 -35.361736,-15.83231 -35.361736,-35.361736 0,-19.529427 15.83231,-35.3617369 35.361736,-35.3617369"
         inkscape:connector-curvature="0"
         style="fill:#66b245" />
      <path
         id="path4222"
         d="m 56.284279,74.444403 c -20.456186,0 -37.098171,-16.641984 -37.098171,-37.09817 0,-20.456187 16.641985,-37.09817098 37.098171,-37.09817098 20.456186,0 37.098171,16.64198398 37.098171,37.09817098 0,20.456186 -16.641985,37.09817 -37.098171,37.09817 l 0,0 z m 0,-70.7234728 c -18.541147,0 -33.625302,15.0841548 -33.625302,33.6253028 0,18.541147 15.084155,33.625302 33.625302,33.625302 18.541147,0 33.625302,-15.084155 33.625302,-33.625302 0,-18.541148 -15.084155,-33.6253028 -33.625302,-33.6253028 l 0,0 z"
         inkscape:connector-curvature="0"
         style="fill:#ffffff" />
    </g>
  </g>
  <g
     inkscape:groupmode="layer"
     id="layer2"
     inkscape:label="BADGE"
     style="display:none"
     sodipodi:insensitive="true">
    <g
       style="display:inline"
       transform="translate(-340.00001,-581)"
       id="g4394"
       clip-path="none">
      <g
         id="g855">
        <g
           inkscape:groupmode="maskhelper"
           id="g870"
           clip-path="url(#clipPath873)"
           style="opacity:0.6;filter:url(#filter891)">
          <path
             transform="matrix(1.4999992,0,0,1.4999992,-29.999795,-237.54282)"
             d="m 264,552.36218 a 12,12 0 0 1 -12,12 12,12 0 0 1 -12,-12 12,12 0 0 1 12,-12 12,12 0 0 1 12,12 z"
             sodipodi:ry="12"
             sodipodi:rx="12"
             sodipodi:cy="552.36218"
             sodipodi:cx="252"
             id="path844"
             style="color:#000000;fill:#000000;fill-opacity:1;fill-rule:nonzero;stroke:none;stroke-width:4;marker:none;visibility:visible;display:inline;overflow:visible;enable-background:accumulate"
             sodipodi:type="arc" />
        </g>
        <g
           id="g862">
          <path
             sodipodi:type="arc"
             style="color:#000000;fill:#f5f5f5;fill-opacity:1;fill-rule:nonzero;stroke:none;stroke-width:4;marker:none;visibility:visible;display:inline;overflow:visible;enable-background:accumulate"
             id="path4398"
             sodipodi:cx="252"
             sodipodi:cy="552.36218"
             sodipodi:rx="12"
             sodipodi:ry="12"
             d="m 264,552.36218 a 12,12 0 0 1 -12,12 12,12 0 0 1 -12,-12 12,12 0 0 1 12,-12 12,12 0 0 1 12,12 z"
             transform="matrix(1.4999992,0,0,1.4999992,-29.999795,-238.54282)" />
          <path
             transform="matrix(1.25,0,0,1.25,33,-100.45273)"
             d="m 264,552.36218 a 12,12 0 0 1 -12,12 12,12 0 0 1 -12,-12 12,12 0 0 1 12,-12 12,12 0 0 1 12,12 z"
             sodipodi:ry="12"
             sodipodi:rx="12"
             sodipodi:cy="552.36218"
             sodipodi:cx="252"
             id="path4400"
             style="color:#000000;fill:#dd4814;fill-opacity:1;fill-rule:nonzero;stroke:none;stroke-width:4;marker:none;visibility:visible;display:inline;overflow:visible;enable-background:accumulate"
             sodipodi:type="arc" />
          <path
             sodipodi:type="star"
             style="color:#000000;fill:#f5f5f5;fill-opacity:1;fill-rule:nonzero;stroke:none;stroke-width:3;marker:none;visibility:visible;display:inline;overflow:visible;enable-background:accumulate"
             id="path4459"
             sodipodi:sides="5"
             sodipodi:cx="666.19574"
             sodipodi:cy="589.50385"
             sodipodi:r1="7.2431178"
             sodipodi:r2="4.3458705"
             sodipodi:arg1="1.0471976"
             sodipodi:arg2="1.6755161"
             inkscape:flatsided="false"
             inkscape:rounded="0.1"
             inkscape:randomized="0"
             d="m 669.8173,595.77657 c -0.39132,0.22593 -3.62645,-1.90343 -4.07583,-1.95066 -0.44938,-0.0472 -4.05653,1.36297 -4.39232,1.06062 -0.3358,-0.30235 0.68963,-4.03715 0.59569,-4.47913 -0.0939,-0.44198 -2.5498,-3.43681 -2.36602,-3.8496 0.18379,-0.41279 4.05267,-0.59166 4.44398,-0.81759 0.39132,-0.22593 2.48067,-3.48704 2.93005,-3.4398 0.44938,0.0472 1.81505,3.67147 2.15084,3.97382 0.3358,0.30236 4.08294,1.2817 4.17689,1.72369 0.0939,0.44198 -2.9309,2.86076 -3.11469,3.27355 -0.18379,0.41279 0.0427,4.27917 -0.34859,4.5051 z"
             transform="matrix(1.511423,-0.16366377,0.16366377,1.511423,-755.37346,-191.93651)" />
        </g>
      </g>
    </g>
  </g>
</svg>
